widgets/TimeSlider/css/images/play.svg

<svg width="20" height="20" xmlns="http://www.w3.org/2000/svg"><path d="M8 14.5l6-4.5-6-4.5v9zM10 0C4.5 0 0 4.5 0 10s4.5 10 10 10 10-4.5 10-10S15.5 0 10 0zm0 18c-4.4 0-8-3.6-8-8s3.6-8 8-8 8 3.6 8 8-3.6 8-8 8z" fill="#FFF" fill-rule="evenodd" opacity=".5"/></svg>

<?xml version="1.0" encoding="UTF-8"?>
<svg width="20px" height="20px" viewBox="0 0 20 20" version="1.1" xmlns="http://www.w3.org/2000/svg" xmlns:xlink="http://www.w3.org/1999/xlink">
    <!-- Generator: Sketch 41.1 (35376) - http://www.bohemiancoding.com/sketch -->
    <title>play_normal</title>
    <desc>Created with Sketch.</desc>
    <defs></defs>
    <g id="Timeslider" stroke="none" stroke-width="1" fill="none" fill-rule="evenodd" opacity="0.5">
        <g id="TimeSlider_simple" transform="translate(-988.000000, -974.000000)" fill="#FFFFFF">
            <g id="play_normal" transform="translate(988.000000, 974.000000)">
                <path d="M8,14.5 L14,10 L8,5.5 L8,14.5 L8,14.5 Z M10,0 C4.5,0 0,4.5 0,10 C0,15.5 4.5,20 10,20 C15.5,20 20,15.5 20,10 C20,4.5 15.5,0 10,0 L10,0 Z M10,18 C5.6,18 2,14.4 2,10 C2,5.6 5.6,2 10,2 C14.4,2 18,5.6 18,10 C18,14.4 14.4,18 10,18 L10,18 Z" id="Shape"></path>
            </g>
        </g>
    </g>
</svg>
